img/svg/YouTube.svg

<svg width="16" height="16" viewBox="0 0 16 16" xmlns="http://www.w3.org/2000/svg">
<path fill-rule="evenodd" clip-rule="evenodd" d="M14.2602 2.74304C14.9455 2.92761 15.4859 3.46789 15.6703 4.15331C16.0131 5.40526 15.9999 8.01486 15.9999 8.01486C15.9999 8.01486 15.9999 10.6112 15.6705 11.8632C15.4859 12.5485 14.9456 13.0889 14.2602 13.2734C13.0081 13.603 7.99997 13.603 7.99997 13.603C7.99997 13.603 3.00487 13.603 1.73974 13.2603C1.05432 13.0758 0.514036 12.5353 0.329466 11.85C0 10.6112 0 8.00168 0 8.00168C0 8.00168 0 5.40526 0.329466 4.15331C0.513914 3.46801 1.0675 2.91443 1.73962 2.72998C2.99169 2.40039 7.99984 2.40039 7.99984 2.40039C7.99984 2.40039 13.0081 2.40039 14.2602 2.74304ZM10.5699 8.00145L6.40524 10.4001V5.60277L10.5699 8.00145Z" />
</svg>

<svg width="16" height="16" xmlns="http://www.w3.org/2000/svg"><path fill-rule="evenodd" clip-rule="evenodd" d="M14.26 2.743a2.004 2.004 0 011.41 1.41c.343 1.252.33 3.862.33 3.862s0 2.596-.33 3.848a2.005 2.005 0 01-1.41 1.41c-1.252.33-6.26.33-6.26.33s-4.995 0-6.26-.343a2.005 2.005 0 01-1.41-1.41C0 10.611 0 8.002 0 8.002s0-2.597.33-3.849A2.046 2.046 0 011.74 2.73C2.992 2.4 8 2.4 8 2.4s5.008 0 6.26.343zm-3.69 5.258l-4.165 2.4V5.602L10.57 8z"/></svg>
